X: 18928
T: Indian Point
R: jig
M: 6/8
K: Eminor
|:B,EF G2A|BAG FED|CEF G2A|BAG BAG|FED A,2D|
FED AGF|1 EFG BAG|F3 FED:|2 GFE FED|E3 E2A||
|:Bef gfe|cef gfe|dfg agf|gfe fed|Bef gfe|
ceg a2a|1 bag fef|e3 edc:|2 bag fgf|e3 e2C||

